packages/sources/assets/src/assets/flag-om.svg

<svg width="28" height="20" viewBox="0 0 28 20" fill="none" xmlns="http://www.w3.org/2000/svg">
<rect x="0.25" y="0.25" width="27.5" height="19.5" rx="1.75" fill="white" stroke="#F5F5F5" stroke-width="0.5"/>
<mask id="mask0_503_2620" style="mask-type:alpha" maskUnits="userSpaceOnUse" x="0" y="0" width="28" height="20">
<rect x="0.25" y="0.25" width="27.5" height="19.5" rx="1.75" fill="white" stroke="white" stroke-width="0.5"/>
</mask>
<g mask="url(#mask0_503_2620)">
<path fill-rule="evenodd" clip-rule="evenodd" d="M0 20H28V13.3333H0V20Z" fill="#138E16"/>
<path fill-rule="evenodd" clip-rule="evenodd" d="M0 20H9.33333V13.3333H28V6.66667H9.33333V0H0V20Z" fill="#ED2B35"/>
<path fill-rule="evenodd" clip-rule="evenodd" d="M4.66667 4.71175L3.50964 6.40258L4.11019 4.44377L2.06686 4.59338L3.97275 3.84161L2.58178 2.33736L4.35785 3.35872L4.66667 1.33333L4.97549 3.35872L6.75155 2.33736L5.36058 3.84161L7.26647 4.59338L5.22314 4.44377L5.82369 6.40258L4.66667 4.71175Z" fill="white"/>
</g>
</svg>

<svg width="28" height="20" fill="none" xmlns="http://www.w3.org/2000/svg"><rect x=".25" y=".25" width="27.5" height="19.5" rx="1.75" fill="#fff" stroke="#F5F5F5" stroke-width=".5"/><mask id="a" style="mask-type:alpha" maskUnits="userSpaceOnUse" x="0" y="0" width="28" height="20"><rect x=".25" y=".25" width="27.5" height="19.5" rx="1.75" fill="#fff" stroke="#fff" stroke-width=".5"/></mask><g mask="url(#a)" fill-rule="evenodd" clip-rule="evenodd"><path d="M0 20h28v-6.667H0V20Z" fill="#138E16"/><path d="M0 20h9.333v-6.667H28V6.667H9.333V0H0v20Z" fill="#ED2B35"/><path d="M4.667 4.712 3.51 6.402l.6-1.958-2.043.15 1.906-.752-1.391-1.505L4.358 3.36l.309-2.026.308 2.026 1.777-1.022L5.36 3.842l1.905.751-2.043-.15.6 1.96-1.156-1.691Z" fill="#fff"/></g></svg>
